X: 18
T:Tongs By the Fire
M:6/8
R:jig
K:G
GBd cAF|dge dBG|cec BdB|ABG FED|\
GBd cAF|Gge dBG|cec Bag|fef g3:|
|gdB gdB|gfa gdB|~g3 eag|fd^c def|gbg faf|\
(4efge def|gdB AGA |BGF G2:|**

